; generated by Slic3r 1.3.1-dev on 2021-03-15 at 11:51:06

; external perimeters extrusion width = 0.44mm (2.14mm^3/s)
; perimeters extrusion width = 0.40mm (4.28mm^3/s)
; infill extrusion width = 0.50mm (7.31mm^3/s)
; solid infill extrusion width = 0.56mm (2.48mm^3/s)
; top infill extrusion width = 0.30mm (0.99mm^3/s)

M107 ; disable fan
M190 S75 ; set bed temperature and wait for it to be reached
M109 S230 ; set temperature and wait for it to be reached
G28 ; home all axes
G29 ; auto level
G1 X150 Y150 Z50 F10000
G0 X310 Y50 Z2 F9000     ; Move before brush
G92 E0                  ; Set extruder to [0] zero
G1 E30 F200        ; Extrude 30mm filiment along X axis 100mm long to prime and clean the nozzle
G92 E0                  ; Reset extruder to [0] zero end of cleaning run
G1 E-1 F500             ; Retract filiment by 1 mm to reduce string effect
G0 X310 Y3 Z2 F400           ; go through brush
G0 X310 Y3 Z8 F400           ; go out of brush
G0 X150 Y150 Z5 F4000	       ; go center



M109 S230 ; set temperature and wait for it to be reached
G21 ; set units to millimeters
G90 ; use absolute coordinates
M82 ; use absolute distances for extrusion
G92 E0 ; reset extrusion distance
G92 E0 ; reset extrusion distance
G1 E-6.00000 F2400.00000 ; retract extruder 0
G92 E0 ; reset extrusion distance
G1 Z1.000 F15000.000 ; lift Z
G1 X105.552 Y88.288 F15000.000 ; move to first small perimeter point
G1 Z0.300 F15000.000 ; restore layer Z
G1 E6.00000 F2400.00000 ; unretract extruder 0
G1 F900
G1 X106.403 Y87.325 E6.08584 ; small perimeter
G1 X107.103 Y86.623 E6.15207 ; small perimeter
G1 X107.838 Y85.957 E6.21830 ; small perimeter
G1 X108.375 Y85.512 E6.26493 ; small perimeter
G1 X109.166 Y84.914 E6.33117 ; small perimeter
G1 X109.987 Y84.358 E6.39740 ; small perimeter
G1 X110.835 Y83.844 E6.46364 ; small perimeter
G1 X112.019 Y83.223 E6.55296 ; small perimeter
G1 X112.875 Y82.836 E6.61570 ; small perimeter
G1 X113.798 Y82.474 E6.68194 ; small perimeter
G1 X114.738 Y82.160 E6.74817 ; small perimeter
G1 X115.694 Y81.896 E6.81441 ; small perimeter
G1 X116.374 Y81.739 E6.86103 ; small perimeter
G1 X117.349 Y81.559 E6.92727 ; small perimeter
G1 X118.335 Y81.473 E6.99340 ; small perimeter
G1 X181.665 Y81.473 E11.22419 ; small perimeter
G1 X182.651 Y81.559 E11.29032 ; small perimeter
G1 X183.339 Y81.681 E11.33695 ; small perimeter
G1 X184.306 Y81.896 E11.40318 ; small perimeter
G1 X185.542 Y82.248 E11.48901 ; small perimeter
G1 X186.477 Y82.576 E11.55525 ; small perimeter
G1 X187.442 Y82.974 E11.62498 ; small perimeter
G1 X188.292 Y83.375 E11.68773 ; small perimeter
G1 X188.909 Y83.701 E11.73435 ; small perimeter
G1 X189.765 Y84.201 E11.80058 ; small perimeter
G1 X190.594 Y84.745 E11.86682 ; small perimeter
G1 X191.394 Y85.331 E11.93305 ; small perimeter
G1 X192.383 Y86.150 E12.01888 ; small perimeter
G1 X193.108 Y86.827 E12.08509 ; small perimeter
G1 X193.797 Y87.540 E12.15136 ; small perimeter
G1 X194.448 Y88.288 E12.21758 ; small perimeter
G1 X195.059 Y89.068 E12.28381 ; small perimeter
G1 X195.630 Y89.879 E12.35006 ; small perimeter
G1 X196.183 Y90.764 E12.41978 ; small perimeter
G1 X196.641 Y91.584 E12.48252 ; small perimeter
G1 X196.954 Y92.208 E12.52915 ; small perimeter
G1 X197.470 Y93.384 E12.61498 ; small perimeter
G1 X197.830 Y94.364 E12.68470 ; small perimeter
G1 X198.110 Y95.261 E12.74745 ; small perimeter
G1 X198.288 Y95.935 E12.79407 ; small perimeter
G1 X198.552 Y97.193 E12.87991 ; small perimeter
G1 X198.703 Y98.226 E12.94964 ; small perimeter
G1 X198.793 Y99.161 E13.01238 ; small perimeter
G1 X198.829 Y99.858 E13.05901 ; small perimeter
G1 X198.829 Y200.142 E19.75858 ; small perimeter
G1 X198.770 Y201.132 E19.82481 ; small perimeter
G1 X198.660 Y202.117 E19.89104 ; small perimeter
G1 X198.499 Y203.096 E19.95727 ; small perimeter
G1 X198.356 Y203.779 E20.00390 ; small perimeter
G1 X198.110 Y204.739 E20.07015 ; small perimeter
G1 X197.718 Y205.963 E20.15598 ; small perimeter
G1 X197.360 Y206.887 E20.22220 ; small perimeter
G1 X196.930 Y207.839 E20.29194 ; small perimeter
G1 X196.502 Y208.675 E20.35468 ; small perimeter
G1 X196.157 Y209.281 E20.40130 ; small perimeter
G1 X195.630 Y210.121 E20.46754 ; small perimeter
G1 X195.059 Y210.932 E20.53378 ; small perimeter
G1 X194.259 Y211.937 E20.61961 ; small perimeter
G1 X193.597 Y212.675 E20.68584 ; small perimeter
G1 X192.897 Y213.377 E20.75207 ; small perimeter
G1 X192.122 Y214.076 E20.82180 ; small perimeter
G1 X191.394 Y214.669 E20.88453 ; small perimeter
G1 X190.834 Y215.086 E20.93117 ; small perimeter
G1 X190.013 Y215.642 E20.99740 ; small perimeter
G1 X189.165 Y216.156 E21.06364 ; small perimeter
G1 X188.292 Y216.625 E21.12987 ; small perimeter
G1 X187.395 Y217.048 E21.19611 ; small perimeter
G1 X186.202 Y217.526 E21.28194 ; small perimeter
G1 X185.262 Y217.840 E21.34817 ; small perimeter
G1 X184.591 Y218.031 E21.39480 ; small perimeter
G1 X183.626 Y218.261 E21.46104 ; small perimeter
G1 X182.651 Y218.441 E21.52727 ; small perimeter
G1 X181.665 Y218.527 E21.59341 ; small perimeter
G1 X118.335 Y218.527 E25.82419 ; small perimeter
G1 X117.349 Y218.441 E25.89033 ; small perimeter
G1 X116.661 Y218.319 E25.93695 ; small perimeter
G1 X115.694 Y218.104 E26.00319 ; small perimeter
G1 X114.458 Y217.752 E26.08903 ; small perimeter
G1 X113.523 Y217.424 E26.15526 ; small perimeter
G1 X112.875 Y217.164 E26.20189 ; small perimeter
G1 X111.972 Y216.755 E26.26812 ; small perimeter
G1 X111.091 Y216.299 E26.33436 ; small perimeter
G1 X110.235 Y215.799 E26.40059 ; small perimeter
G1 X109.406 Y215.255 E26.46682 ; small perimeter
G1 X108.606 Y214.669 E26.53306 ; small perimeter
G1 X107.838 Y214.043 E26.59929 ; small perimeter
G1 X106.931 Y213.212 E26.68145 ; small perimeter
G1 X106.203 Y212.460 E26.75137 ; small perimeter
G1 X105.552 Y211.712 E26.81760 ; small perimeter
G1 X104.941 Y210.932 E26.88383 ; small perimeter
G1 X104.370 Y210.121 E26.95007 ; small perimeter
G1 X103.843 Y209.281 E27.01630 ; small perimeter
G1 X103.498 Y208.675 E27.06293 ; small perimeter
G1 X102.921 Y207.526 E27.14877 ; small perimeter
G1 X102.511 Y206.567 E27.21850 ; small perimeter
G1 X102.186 Y205.686 E27.28123 ; small perimeter
G1 X101.972 Y205.021 E27.32786 ; small perimeter
G1 X101.712 Y204.065 E27.39409 ; small perimeter
G1 X101.448 Y202.807 E27.47993 ; small perimeter
G1 X101.297 Y201.774 E27.54965 ; small perimeter
G1 X101.207 Y200.839 E27.61240 ; small perimeter
G1 X101.171 Y200.142 E27.65902 ; small perimeter
G1 X101.164 Y100.151 E34.33899 ; small perimeter
G1 X101.230 Y98.868 E34.42483 ; small perimeter
G1 X101.302 Y98.174 E34.47145 ; small perimeter
G1 X101.448 Y97.193 E34.53769 ; small perimeter
G1 X101.712 Y95.935 E34.62353 ; small perimeter
G1 X101.972 Y94.979 E34.68976 ; small perimeter
G1 X102.282 Y94.037 E34.75599 ; small perimeter
G1 X102.529 Y93.384 E34.80262 ; small perimeter
G1 X102.921 Y92.474 E34.86885 ; small perimeter
G1 X103.498 Y91.325 E34.95469 ; small perimeter
G1 X103.843 Y90.719 E35.00132 ; small perimeter
G1 X104.370 Y89.879 E35.06755 ; small perimeter
G1 X104.941 Y89.068 E35.13379 ; small perimeter
G1 X105.515 Y88.335 E35.19601 ; small perimeter
G1 X105.971 Y88.621 F15000.000 ; move to first small perimeter point
G1 F900
G1 X106.604 Y87.895 E35.26039 ; small perimeter
G1 X107.274 Y87.202 E35.32478 ; small perimeter
G1 X107.979 Y86.545 E35.38917 ; small perimeter
G1 X108.717 Y85.925 E35.45355 ; small perimeter
G1 X109.703 Y85.190 E35.53569 ; small perimeter
G1 X110.509 Y84.661 E35.60006 ; small perimeter
G1 X111.341 Y84.175 E35.66445 ; small perimeter
G1 X112.196 Y83.732 E35.72884 ; small perimeter
G1 X113.074 Y83.333 E35.79322 ; small perimeter
G1 X113.971 Y82.981 E35.85761 ; small perimeter
G1 X114.885 Y82.675 E35.92199 ; small perimeter
G1 X115.814 Y82.418 E35.98638 ; small perimeter
G1 X116.754 Y82.208 E36.05076 ; small perimeter
G1 X117.442 Y82.087 E36.09739 ; small perimeter
G1 X118.335 Y82.009 E36.15728 ; small perimeter
G1 X181.665 Y82.009 E40.38807 ; small perimeter
G1 X182.558 Y82.087 E40.44796 ; small perimeter
G1 X183.246 Y82.208 E40.49459 ; small perimeter
G1 X184.186 Y82.418 E40.55898 ; small perimeter
G1 X185.368 Y82.755 E40.64110 ; small perimeter
G1 X186.278 Y83.073 E40.70549 ; small perimeter
G1 X187.217 Y83.461 E40.77337 ; small perimeter
G1 X188.042 Y83.849 E40.83427 ; small perimeter
G1 X188.659 Y84.175 E40.88090 ; small perimeter
G1 X189.491 Y84.661 E40.94528 ; small perimeter
G1 X190.297 Y85.190 E41.00966 ; small perimeter
G1 X191.074 Y85.760 E41.07404 ; small perimeter
G1 X191.820 Y86.370 E41.13843 ; small perimeter
G1 X192.725 Y87.202 E41.22054 ; small perimeter
G1 X193.396 Y87.895 E41.28495 ; small perimeter
G1 X194.029 Y88.621 E41.34933 ; small perimeter
G1 X194.623 Y89.380 E41.41370 ; small perimeter
G1 X195.178 Y90.168 E41.47811 ; small perimeter
G1 X195.717 Y91.029 E41.54597 ; small perimeter
G1 X196.162 Y91.825 E41.60687 ; small perimeter
G1 X196.475 Y92.448 E41.65350 ; small perimeter
G1 X196.970 Y93.574 E41.73563 ; small perimeter
G1 X197.320 Y94.528 E41.80351 ; small perimeter
G1 X197.592 Y95.398 E41.86440 ; small perimeter
G1 X197.771 Y96.072 E41.91102 ; small perimeter
G1 X198.023 Y97.276 E41.99316 ; small perimeter
G1 X198.171 Y98.281 E42.06104 ; small perimeter
G1 X198.258 Y99.188 E42.12193 ; small perimeter
G1 X198.294 Y99.885 E42.16856 ; small perimeter
G1 X198.294 Y200.115 E48.86443 ; small perimeter
G1 X198.237 Y201.077 E48.92881 ; small perimeter
G1 X198.123 Y202.086 E48.99669 ; small perimeter
G1 X197.975 Y202.986 E49.05757 ; small perimeter
G1 X197.832 Y203.669 E49.10420 ; small perimeter
G1 X197.592 Y204.602 E49.16859 ; small perimeter
G1 X197.304 Y205.522 E49.23297 ; small perimeter
G1 X196.869 Y206.672 E49.31510 ; small perimeter
G1 X196.452 Y207.598 E49.38298 ; small perimeter
G1 X196.037 Y208.410 E49.44387 ; small perimeter
G1 X195.692 Y209.016 E49.49050 ; small perimeter
G1 X195.178 Y209.832 E49.55488 ; small perimeter
G1 X194.623 Y210.620 E49.61928 ; small perimeter
G1 X193.858 Y211.582 E49.70141 ; small perimeter
G1 X193.214 Y212.300 E49.76579 ; small perimeter
G1 X192.535 Y212.983 E49.83017 ; small perimeter
G1 X191.780 Y213.663 E49.89805 ; small perimeter
G1 X191.074 Y214.239 E49.95893 ; small perimeter
G1 X190.514 Y214.656 E50.00557 ; small perimeter
G1 X189.716 Y215.197 E50.06995 ; small perimeter
G1 X188.891 Y215.695 E50.13434 ; small perimeter
G1 X188.042 Y216.151 E50.19872 ; small perimeter
G1 X187.170 Y216.561 E50.26311 ; small perimeter
G1 X186.029 Y217.019 E50.34524 ; small perimeter
G1 X185.369 Y217.245 E50.39187 ; small perimeter
G1 X184.444 Y217.516 E50.45625 ; small perimeter
G1 X183.506 Y217.739 E50.52064 ; small perimeter
G1 X182.558 Y217.913 E50.58503 ; small perimeter
G1 X181.665 Y217.991 E50.64492 ; small perimeter
G1 X118.335 Y217.991 E54.87571 ; small perimeter
G1 X117.442 Y217.913 E54.93560 ; small perimeter
G1 X116.755 Y217.792 E54.98223 ; small perimeter
G1 X115.814 Y217.582 E55.04662 ; small perimeter
G1 X114.631 Y217.245 E55.12876 ; small perimeter
G1 X113.673 Y216.907 E55.19663 ; small perimeter
G1 X112.830 Y216.561 E55.25752 ; small perimeter
G1 X112.196 Y216.268 E55.30414 ; small perimeter
G1 X111.341 Y215.825 E55.36853 ; small perimeter
G1 X110.509 Y215.339 E55.43291 ; small perimeter
G1 X109.703 Y214.810 E55.49729 ; small perimeter
G1 X108.926 Y214.239 E55.56169 ; small perimeter
G1 X108.180 Y213.630 E55.62607 ; small perimeter
G1 X107.310 Y212.833 E55.70487 ; small perimeter
G1 X106.604 Y212.105 E55.77260 ; small perimeter
G1 X105.971 Y211.379 E55.83698 ; small perimeter
G1 X105.377 Y210.620 E55.90136 ; small perimeter
G1 X104.822 Y209.832 E55.96575 ; small perimeter
G1 X104.308 Y209.017 E56.03013 ; small perimeter
G1 X103.963 Y208.410 E56.07676 ; small perimeter
G1 X103.412 Y207.311 E56.15889 ; small perimeter
G1 X103.030 Y206.426 E56.22328 ; small perimeter
G1 X102.696 Y205.522 E56.28766 ; small perimeter
G1 X102.482 Y204.858 E56.33429 ; small perimeter
G1 X102.229 Y203.928 E56.39867 ; small perimeter
G1 X101.977 Y202.724 E56.48081 ; small perimeter
G1 X101.835 Y201.771 E56.54519 ; small perimeter
G1 X101.763 Y201.077 E56.59182 ; small perimeter
G1 X101.706 Y200.115 E56.65621 ; small perimeter
G1 X101.699 Y100.151 E63.33432 ; small perimeter
G1 X101.763 Y98.923 E63.41646 ; small perimeter
G1 X101.869 Y97.965 E63.48085 ; small perimeter
G1 X101.977 Y97.276 E63.52747 ; small perimeter
G1 X102.229 Y96.072 E63.60961 ; small perimeter
G1 X102.482 Y95.142 E63.67400 ; small perimeter
G1 X102.783 Y94.227 E63.73838 ; small perimeter
G1 X103.030 Y93.574 E63.78501 ; small perimeter
G1 X103.412 Y92.689 E63.84939 ; small perimeter
G1 X103.963 Y91.590 E63.93153 ; small perimeter
G1 X104.308 Y90.983 E63.97816 ; small perimeter
G1 X104.822 Y90.168 E64.04254 ; small perimeter
G1 X105.377 Y89.380 E64.10693 ; small perimeter
G1 X105.934 Y88.668 E64.16730 ; small perimeter
G1 X106.390 Y88.955 F15000.000 ; move to first small perimeter point
G1 F900
G1 X107.006 Y88.250 E64.22983 ; small perimeter
G1 X107.657 Y87.577 E64.29237 ; small perimeter
G1 X108.342 Y86.939 E64.35491 ; small perimeter
G1 X109.059 Y86.337 E64.41744 ; small perimeter
G1 X110.000 Y85.636 E64.49588 ; small perimeter
G1 X110.783 Y85.122 E64.55840 ; small perimeter
G1 X111.590 Y84.649 E64.62094 ; small perimeter
G1 X112.421 Y84.218 E64.68348 ; small perimeter
G1 X113.273 Y83.830 E64.74601 ; small perimeter
G1 X114.144 Y83.488 E64.80855 ; small perimeter
G1 X115.032 Y83.191 E64.87108 ; small perimeter
G1 X115.934 Y82.940 E64.93362 ; small perimeter
G1 X116.848 Y82.736 E64.99615 ; small perimeter
G1 X117.535 Y82.614 E65.04278 ; small perimeter
G1 X118.335 Y82.544 E65.09644 ; small perimeter
G1 X181.665 Y82.544 E69.32722 ; small perimeter
G1 X182.465 Y82.614 E69.38087 ; small perimeter
G1 X183.386 Y82.783 E69.44342 ; small perimeter
G1 X184.297 Y82.999 E69.50595 ; small perimeter
G1 X185.195 Y83.262 E69.56847 ; small perimeter
G1 X186.079 Y83.571 E69.63101 ; small perimeter
G1 X186.993 Y83.947 E69.69704 ; small perimeter
G1 X187.792 Y84.323 E69.75609 ; small perimeter
G1 X188.410 Y84.649 E69.80271 ; small perimeter
G1 X189.217 Y85.122 E69.86524 ; small perimeter
G1 X190.000 Y85.636 E69.92778 ; small perimeter
G1 X190.754 Y86.190 E69.99031 ; small perimeter
G1 X191.658 Y86.939 E70.06874 ; small perimeter
G1 X192.343 Y87.577 E70.13126 ; small perimeter
G1 X192.994 Y88.250 E70.19382 ; small perimeter
G1 X193.610 Y88.955 E70.25635 ; small perimeter
G1 X194.188 Y89.691 E70.31888 ; small perimeter
G1 X194.727 Y90.456 E70.38143 ; small perimeter
G1 X195.330 Y91.430 E70.45794 ; small perimeter
G1 X195.683 Y92.065 E70.50648 ; small perimeter
G1 X195.997 Y92.689 E70.55311 ; small perimeter
G1 X196.469 Y93.764 E70.63154 ; small perimeter
G1 X196.810 Y94.691 E70.69756 ; small perimeter
G1 X197.074 Y95.535 E70.75661 ; small perimeter
G1 X197.253 Y96.209 E70.80324 ; small perimeter
G1 X197.494 Y97.358 E70.88168 ; small perimeter
G1 X197.638 Y98.336 E70.94771 ; small perimeter
G1 X197.723 Y99.216 E71.00674 ; small perimeter
G1 X197.759 Y99.913 E71.05337 ; small perimeter
G1 X197.759 Y200.087 E77.74554 ; small perimeter
G1 X197.705 Y201.021 E77.80807 ; small perimeter
G1 X197.594 Y202.004 E77.87410 ; small perimeter
G1 X197.451 Y202.876 E77.93313 ; small perimeter
G1 X197.308 Y203.559 E77.97977 ; small perimeter
G1 X197.074 Y204.465 E78.04231 ; small perimeter
G1 X196.716 Y205.583 E78.12074 ; small perimeter
G1 X196.379 Y206.457 E78.18327 ; small perimeter
G1 X195.934 Y207.436 E78.25513 ; small perimeter
G1 X195.571 Y208.145 E78.30834 ; small perimeter
G1 X195.226 Y208.752 E78.35496 ; small perimeter
G1 X194.727 Y209.544 E78.41750 ; small perimeter
G1 X194.188 Y210.309 E78.48004 ; small perimeter
G1 X193.457 Y211.227 E78.55847 ; small perimeter
G1 X192.832 Y211.925 E78.62100 ; small perimeter
G1 X192.172 Y212.589 E78.68354 ; small perimeter
G1 X191.439 Y213.251 E78.74957 ; small perimeter
G1 X190.754 Y213.810 E78.80860 ; small perimeter
G1 X190.194 Y214.227 E78.85523 ; small perimeter
G1 X189.419 Y214.751 E78.91777 ; small perimeter
